X:1
T:Brightest and Best
T:Brightest and Best
T:#46 Epiphany, First Tune
T:James P. Harding, 1892
T:Five Verse
C:James P. Harding, 1892
Z:Five Verse
%%score 1 2 3 4
L:1/8
M:4/4
K:Ab
V:1 treble transpose=-2 nm="B♭ Trumpet" snm="B♭ Tpt."
V:2 treble transpose=-2 nm="B♭ Trumpet" snm="B♭ Tpt."
V:3 bass nm="Trombone" snm="Trom."
V:4 bass nm="Tuba" snm="Tba."
V:1
[K:Bb] d4 c2 B2 | A4 G2 F2 | F2 B2 A2 B2 | d4 c4 | f4 e2 d2 | d4 c2 B2 | A2 c2 B2 G2 | F8 || %8
 d4 c2 B2 | A4 G2 F2 | F2 B2 d2 f2 | f4 e4 | d4 B2 c2 | d4 B2 G2 | F2 G2 A2 c2 | B8 |] %16
V:2
[K:Bb] D4 D2 D2 | E4 E2 E2 | F4 =E2 E2 | F4 F4 | F4 F2 F2 | F4 F2 F2 | F4 =E2 E2 | F4 E4 || %8
 D4 D2 D2 | E4 E2 E2 | F4 B2 A2 | G4 G4 | F4 D2 G2 | ^F4 D2 ^C2 | D4 E2 E2 | D8 |] %16
V:3
 E,4 E,2 E,2 | E,4 F,2 G,2 | A,4 A,2 A,2 | A,4 G,4 | A,4 G,2 A,2 | A,4 B,2 C2 | B,2 G,2 F,2 A,2 | %7
 G,8 || E,4 E,2 E,2 | E,4 F,2 G,2 | A,4 A,2 A,2 | A,4 A,4 | A,4 A,2 F,2 | G,4 A,2 A,2 | %14
 A,4 B,2 G,2 | A,8 |] %16
V:4
!ff! A,,4 A,,2 A,,2 | B,,4 B,,2 B,,2 | C,4 F,2 F,2 | E,4 E,2 D,2 | C,4 B,,2 A,,2 | A,4 G,2 F,2 | %6
 B,,4 B,,2 B,,2 | E,8 || A,,4 A,,2 A,,2 | B,,4 B,,2 B,,2 | C,4 C,2 C,2 | D,4 D,4 | E,4 F,2 D,2 | %13
 C,4 F,2 =D,2 | E,4 E,2 E,2 | A,,8 |] %16

